icons/actions/22/resource-calendar-child.svg

<?xml version="1.0"?>
<!-- Created with Inkscape (http://www.inkscape.org/) -->
<svg xmlns:dc="http://purl.org/dc/elements/1.1/" xmlns:cc="http://creativecommons.org/ns#" xmlns:rdf="http://www.w3.org/1999/02/22-rdf-syntax-ns#" xmlns:svg="http://www.w3.org/2000/svg" xmlns="http://www.w3.org/2000/svg" xmlns:sodipodi="http://sodipodi.sourceforge.net/DTD/sodipodi-0.dtd" xmlns:inkscape="http://www.inkscape.org/namespaces/inkscape" width="22" height="22" id="svg3049" version="1.1" inkscape:version="0.91 r13725" sodipodi:docname="resource-calendar-child.svg" inkscape:export-filename="/home/uri/.kde/share/icons/NITRUX-KDE/16x16/actions/view-right-new.png" inkscape:export-xdpi="30" inkscape:export-ydpi="30">
  <defs id="defs3051">
    <style type="text/css" id="current-color-scheme">
      .ColorScheme-Text {
        color:#4d4d4d;
      }
      .ColorScheme-Background {
        color:#eff0f1;
      }
      .ColorScheme-Highlight {
        color:#3daee9;
      }
      .ColorScheme-ViewText {
        color:#31363b;
      }
      .ColorScheme-ViewBackground {
        color:#fcfcfc;
      }
      .ColorScheme-ViewHover {
        color:#93cee9;
      }
      .ColorScheme-ViewFocus{
        color:#3daee9;
      }
      .ColorScheme-ButtonText {
        color:#31363b;
      }
      .ColorScheme-ButtonBackground {
        color:#eff0f1;
      }
      .ColorScheme-ButtonHover {
        color:#93cee9;
      }
      .ColorScheme-ButtonFocus{
        color:#3daee9;
      }
      </style>
  </defs>
  <sodipodi:namedview id="base" pagecolor="#ffffff" bordercolor="#666666" borderopacity="1.0" inkscape:pageopacity="0.0" inkscape:pageshadow="2" inkscape:zoom="33.007813" inkscape:cx="10.119947" inkscape:cy="9.5219281" inkscape:document-units="px" inkscape:current-layer="layer1" showgrid="true" fit-margin-top="0" fit-margin-left="0" fit-margin-right="0" fit-margin-bottom="0" inkscape:window-width="2560" inkscape:window-height="948" inkscape:window-x="0" inkscape:window-y="35" inkscape:window-maximized="1" inkscape:showpageshadow="false" borderlayer="true">
    <sodipodi:guide position="2.0000044,20.00003" orientation="18,0" id="guide4067"/>
    <sodipodi:guide position="2.0000044,2.0000296" orientation="0,18" id="guide4069"/>
    <sodipodi:guide position="20.000004,2.0000296" orientation="-18,0" id="guide4071"/>
    <sodipodi:guide position="20.000004,20.00003" orientation="0,-18" id="guide4073"/>
    <sodipodi:guide position="3.0000044,19.00003" orientation="16,0" id="guide4077"/>
    <sodipodi:guide position="3.0000044,3.0000296" orientation="0,16" id="guide4079"/>
    <sodipodi:guide position="19.000004,3.0000296" orientation="-16,0" id="guide4081"/>
    <sodipodi:guide position="19.000004,19.00003" orientation="0,-16" id="guide4083"/>
    <inkscape:grid type="xygrid" id="grid4085"/>
  </sodipodi:namedview>
  <metadata id="metadata3054">
    <rdf:RDF>
      <cc:Work rdf:about="">
        <dc:format>image/svg+xml</dc:format>
        <dc:type rdf:resource="http://purl.org/dc/dcmitype/StillImage"/>
        <dc:title/>
      </cc:Work>
    </rdf:RDF>
  </metadata>
  <g inkscape:label="Capa 1" inkscape:groupmode="layer" id="layer1" transform="translate(-421.71429,-525.79074)">
    <path style="fill:currentColor;fill-opacity:1;stroke:none" d="m 6,8 0,2 2,0 0,-2 z m 4,0 0,2 2,0 0,-2 z m 4,0 0,2 2,0 0,-2 z m -8,3 0,2 2,0 0,-2 z m 5,0 0,8 8,0 0,-8 -1,0 0,1 -1,0 0,-1 -4,0 0,1 -1,0 0,-1 z m 1,2 6,0 0,5 -6,0 z m 1,1 0,1 1,0 0,-1 z m 3,0 0,1 1,0 0,-1 z m 0,2 0,1 1,0 0,-1 z" id="rect4089" transform="translate(421.71429,525.79074)" inkscape:connector-curvature="0" sodipodi:nodetypes="ccccccccccccccccccccccccccccccccccccccccccccccccccccc" class="ColorScheme-Text"/>
    <path style="opacity:1;fill:currentColor;fill-opacity:1;stroke:none" d="M 6 3 C 6 3 5 2.99997 5 4 L 3 4 L 3 7 L 3 18 L 3 19 L 10 19 L 10 18 L 4 18 L 4 7 L 18 7 L 18 10 L 19 10 L 19 7 L 19 4 L 17 4 C 17 2.99997 16 3 16 3 L 13 3 C 13 3 12 2.99997 12 4 L 10 4 C 10 2.99997 9 3 9 3 L 6 3 z M 6 4 L 9 4 L 9 5 L 6 5 L 6 4 z M 13 4 L 16 4 L 16 5 L 13 5 L 13 4 z " transform="translate(421.71429,525.79074)" id="rect3370" class="ColorScheme-Text"/>
  </g>
</svg>

<svg xmlns="http://www.w3.org/2000/svg" viewBox="0 0 22 22">
  <defs id="defs3051">
    <style type="text/css" id="current-color-scheme">
      .ColorScheme-Text {
        color:#4d4d4d;
      }
      </style>
  </defs>
 <path 
    style="fill:currentColor;fill-opacity:1;stroke:none" 
    d="M 6 3 C 6 3 5 2.99997 5 4 L 3 4 L 3 7 L 3 18 L 3 19 L 10 19 L 10 18 L 4 18 L 4 7 L 18 7 L 18 10 L 19 10 L 19 7 L 19 4 L 17 4 C 17 2.99997 16 3 16 3 L 13 3 C 13 3 12 2.99997 12 4 L 10 4 C 10 2.99997 9 3 9 3 L 6 3 z M 6 4 L 9 4 L 9 5 L 6 5 L 6 4 z M 13 4 L 16 4 L 16 5 L 13 5 L 13 4 z M 6 8 L 6 10 L 8 10 L 8 8 L 6 8 z M 10 8 L 10 10 L 12 10 L 12 8 L 10 8 z M 14 8 L 14 10 L 16 10 L 16 8 L 14 8 z M 6 11 L 6 13 L 8 13 L 8 11 L 6 11 z M 11 11 L 11 19 L 19 19 L 19 11 L 18 11 L 18 12 L 17 12 L 17 11 L 13 11 L 13 12 L 12 12 L 12 11 L 11 11 z M 12 13 L 18 13 L 18 18 L 12 18 L 12 13 z M 13 14 L 13 15 L 14 15 L 14 14 L 13 14 z M 16 14 L 16 15 L 17 15 L 17 14 L 16 14 z M 16 16 L 16 17 L 17 17 L 17 16 L 16 16 z "
    class="ColorScheme-Text"
    />  
</svg>
